X: 36693
T: She Rose And Let Me In
R: reel
M: 4/4
K: Eminor
G>F|E2 B>c B2 e2|^d3 ^c B2 =c2|B2 AG FG AG|G2 F2 z2 G>F|
E2 B2 B2 e2|^d3 e f2 B>c|B2 f2 gf e^d|e6:|:ef|{ef}g2 fe ^d2 cB|
e^d ef g2 B2|Ac BA GB AG|G2 F2 z2 ef|gf ge ^d^c dB|
e>^d ef g2 B2|"tr"A3 G A2 B^d|e6:|

